X: 23581
T: Lil's Fancy
R: polka
M: 2/4
K: Gmajor
|:[g2G2]fg/f/|ed Bd|A^G/A/ BA|ed B/c/d|
g2 fg/f/|ed Bd|A^G/A/ BA|1 AG Gf:|2 AG GB||
|:A^G/A/ BA|ed B/c/d|A^G/A/ BA|ed B/c/d|
g2 fg/f/|ed Bd|A^G/A/ BA|1 AG GB:|2 AG Gf||

